svgs/regular/virus.svg

<svg xmlns="http://www.w3.org/2000/svg" viewBox="0 0 512 512"><!--! Font Awesome Pro 6.1.1 by @fontawesome - https://fontawesome.com License - https://fontawesome.com/license (Commercial License) Copyright 2022 Fonticons, Inc. --><path d="M256 224C256 241.7 241.7 256 224 256C206.3 256 192 241.7 192 224C192 206.3 206.3 192 224 192C241.7 192 256 206.3 256 224zM280 304C280 290.7 290.7 280 304 280C317.3 280 328 290.7 328 304C328 317.3 317.3 328 304 328C290.7 328 280 317.3 280 304zM120.2 74.98L128.4 83.15C163.7 118.4 224 93.44 224 43.55V32C224 14.33 238.3 0 256 0C273.7 0 288 14.33 288 32V43.55C288 93.44 348.3 118.4 383.6 83.15L391.8 74.98C404.3 62.48 424.5 62.48 437 74.98C449.5 87.48 449.5 107.7 437 120.2L428.9 128.4C393.6 163.7 418.6 224 468.5 224H480C497.7 224 512 238.3 512 256C512 273.7 497.7 288 480 288H468.5C418.6 288 393.6 348.3 428.9 383.6L437 391.8C449.5 404.3 449.5 424.5 437 437C424.5 449.5 404.3 449.5 391.8 437L383.6 428.9C348.3 393.6 288 418.6 288 468.5V480C288 497.7 273.7 512 256 512C238.3 512 224 497.7 224 480V468.5C224 418.6 163.7 393.6 128.4 428.9L120.2 437C107.7 449.5 87.48 449.5 74.98 437C62.48 424.5 62.48 404.3 74.98 391.8L83.15 383.6C118.4 348.3 93.44 288 43.55 288H32C14.33 288 0 273.7 0 256C0 238.3 14.33 224 32 224H43.55C93.44 224 118.4 163.7 83.15 128.4L74.98 120.2C62.48 107.7 62.48 87.48 74.98 74.98C87.48 62.48 107.7 62.48 120.2 74.98V74.98zM256 105.3C232.3 138.9 189.1 156.4 149.5 149.5C156.4 189.1 138.9 232.3 105.3 256C138.9 279.7 156.4 322 149.5 362.5C189.1 355.6 232.3 373.1 255.1 406.7C279.7 373.1 322 355.6 362.5 362.5C355.6 322 373.1 279.7 406.7 256C373.1 232.3 355.6 189.1 362.5 149.5C322 156.4 279.7 138.9 255.1 105.3H256z"/></svg>

<svg xmlns="http://www.w3.org/2000/svg" viewBox="0 0 512 512"><!--! Font Awesome Pro 6.5.1 by @fontawesome - https://fontawesome.com License - https://fontawesome.com/license (Commercial License) Copyright 2023 Fonticons, Inc. --><path d="M75 75c12.5-12.5 32.8-12.5 45.3 0l8.2 8.2C163.7 118.4 224 93.4 224 43.5V32c0-17.7 14.3-32 32-32s32 14.3 32 32V43.5c0 49.9 60.3 74.9 95.6 39.6l8.2-8.2c12.5-12.5 32.8-12.5 45.3 0s12.5 32.8 0 45.3l-8.2 8.2c-35.3 35.3-10.3 95.6 39.6 95.6H480c17.7 0 32 14.3 32 32s-14.3 32-32 32H468.5c-49.9 0-74.9 60.3-39.6 95.6l8.2 8.2c12.5 12.5 12.5 32.8 0 45.3s-32.8 12.5-45.3 0l-8.2-8.2c-35.3-35.3-95.6-10.3-95.6 39.6V480c0 17.7-14.3 32-32 32s-32-14.3-32-32V468.5c0-49.9-60.3-74.9-95.6-39.6l-8.2 8.2c-12.5 12.5-32.8 12.5-45.3 0s-12.5-32.8 0-45.3l8.2-8.2C118.4 348.3 93.4 288 43.5 288H32c-17.7 0-32-14.3-32-32s14.3-32 32-32H43.5c49.9 0 74.9-60.3 39.6-95.6L75 120.2C62.5 107.7 62.5 87.5 75 75zM256 99.6c-23.3 36.4-68.4 55.1-110.6 45.8c9.3 42.2-9.4 87.3-45.8 110.6c36.4 23.3 55.1 68.4 45.8 110.6c42.2-9.3 87.3 9.4 110.6 45.8c23.3-36.4 68.4-55.1 110.6-45.8c-9.3-42.2 9.4-87.3 45.8-110.6c-36.4-23.3-55.1-68.4-45.8-110.6c-21.2 4.7-43.1 2.3-62.6-5.8c-19.4-8.1-36.4-21.8-48-40zM192 224a32 32 0 1 1 64 0 32 32 0 1 1 -64 0zm112 56a24 24 0 1 1 0 48 24 24 0 1 1 0-48z"/></svg>
